icons/file-watch.svg

<svg fill="none" stroke="currentColor" stroke-linecap="round" stroke-linejoin="round" stroke-width="1.5" viewBox="0 0 24 24"><g fill-rule="evenodd"><path d="M19.5 11.625a3.39 3.39 0 0 0-3.375-3.375h-1.5A1.13 1.13 0 0 1 13.5 7.125v-1.5a3.39 3.39 0 0 0-3.375-3.375H8.25m11.25 9c0-4.937-4.063-9-9-9H5.625c-.621 0-1.125.504-1.125 1.125v17.25c0 .621.504 1.125 1.125 1.125h2.142"/><path d="M8.789 18.05a.67.67 0 0 1 0-.425 6.972 6.972 0 0 1 13.23-.003.66.66 0 0 1 0 .424 6.97 6.97 0 0 1-13.23.004"/><path d="M17.396 17.836a2 2 0 0 1-1.992 1.992 2 2 0 0 1-1.992-1.992c0-1.093.899-1.992 1.992-1.992s1.992.899 1.992 1.992"/></g></svg>

<svg width="24" height="24" xmlns="http://www.w3.org/2000/svg" clip-rule="evenodd" viewBox="0 0 24 24"><title>file watch</title><g stroke-linejoin="round" class="nc-icon-wrapper" fill="#ffffff" stroke-linecap="round" fill-rule="evenodd"><path d="M19.5,11.625C19.5,9.774 17.976,8.25 16.125,8.25L14.625,8.25C14.008,8.25 13.5,7.742 13.5,7.125L13.5,5.625C13.5,3.774 11.976,2.25 10.125,2.25L8.25,2.25M19.5,11.25C19.5,6.313 15.437,2.25 10.5,2.25L5.625,2.25C5.004,2.25 4.5,2.754 4.5,3.375L4.5,20.625C4.5,21.246 5.004,21.75 5.625,21.75L7.767,21.75" fill="none" fill-rule="nonzero" stroke="#ffffff" stroke-width="1.5"></path><path d="M2.036,12.322C1.967,12.115 1.967,11.89 2.036,11.683C3.423,7.51 7.36,4.5 12,4.5C16.638,4.5 20.573,7.507 21.963,11.678C22.033,11.885 22.033,12.109 21.963,12.317C20.577,16.49 16.64,19.5 12,19.5C7.362,19.5 3.427,16.493 2.037,12.322L2.036,12.322Z" fill="none" fill-rule="nonzero" stroke="#ffffff" stroke-width="2.26" transform="matrix(.6639 0 0 .6639 7.437 9.869)"></path><path d="M15,12C15,13.646 13.646,15 12,15C10.354,15 9,13.646 9,12C9,10.354 10.354,9 12,9C13.646,9 15,10.354 15,12Z" fill="none" fill-rule="nonzero" stroke="#ffffff" stroke-width="2.26" transform="matrix(.6639 0 0 .6639 7.437 9.869)"></path></g></svg>
